resources/svg/user-circle-o.svg

<svg xmlns="http://www.w3.org/2000/svg" viewBox="0 0 15 15" fill="none"><path d="M3 13V13.5H4V13H3ZM11 13V13.5H12V13H11ZM4 13V12.4999H3V13H4ZM6.5 10H8.5V9H6.5V10ZM11 12.4999V13H12V12.4999H11ZM8.5 10C9.88074 10 11 11.1192 11 12.4999H12C12 10.5668 10.433 9 8.5 9V10ZM4 12.4999C4 11.1192 5.11926 10 6.5 10V9C4.56703 9 3 10.5668 3 12.4999H4ZM7.5 3C6.11929 3 5 4.11929 5 5.5H6C6 4.67157 6.67157 4 7.5 4V3ZM10 5.5C10 4.11929 8.88071 3 7.5 3V4C8.32843 4 9 4.67157 9 5.5H10ZM7.5 8C8.88071 8 10 6.88071 10 5.5H9C9 6.32843 8.32843 7 7.5 7V8ZM7.5 7C6.67157 7 6 6.32843 6 5.5H5C5 6.88071 6.11929 8 7.5 8V7ZM7.5 14C3.91015 14 1 11.0899 1 7.5H0C0 11.6421 3.35786 15 7.5 15V14ZM14 7.5C14 11.0899 11.0899 14 7.5 14V15C11.6421 15 15 11.6421 15 7.5H14ZM7.5 1C11.0899 1 14 3.91015 14 7.5H15C15 3.35786 11.6421 0 7.5 0V1ZM7.5 0C3.35786 0 0 3.35786 0 7.5H1C1 3.91015 3.91015 1 7.5 1V0Z" fill="black"/></svg>

<svg xmlns="http://www.w3.org/2000/svg" viewBox="0 0 15 15" fill="none"><path d="M3 13v.5h1V13H3zm8 0v.5h1V13h-1zm-7 0v-.5H3v.5h1zm2.5-3h2V9h-2v1zm4.5 2.5v.5h1v-.5h-1zM8.5 10a2.5 2.5 0 012.5 2.5h1A3.5 3.5 0 008.5 9v1zM4 12.5A2.5 2.5 0 016.5 10V9A3.5 3.5 0 003 12.5h1zM7.5 3A2.5 2.5 0 005 5.5h1A1.5 1.5 0 017.5 4V3zM10 5.5A2.5 2.5 0 007.5 3v1A1.5 1.5 0 019 5.5h1zM7.5 8A2.5 2.5 0 0010 5.5H9A1.5 1.5 0 017.5 7v1zm0-1A1.5 1.5 0 016 5.5H5A2.5 2.5 0 007.5 8V7zm0 7A6.5 6.5 0 011 7.5H0A7.5 7.5 0 007.5 15v-1zM14 7.5A6.5 6.5 0 017.5 14v1A7.5 7.5 0 0015 7.5h-1zM7.5 1A6.5 6.5 0 0114 7.5h1A7.5 7.5 0 007.5 0v1zm0-1A7.5 7.5 0 000 7.5h1A6.5 6.5 0 017.5 1V0z" fill="currentColor"/></svg>
